X:1
T:Title
%%score ( 1 2 ) { 3 | 4 }
L:1/8
M:3/2
K:G
V:1 treble nm="Grand Piano, Staff 1"
V:2 treble 
V:3 bass nm="Choir Pad, Rolland, LM"
V:4 bass 
V:1
 [DG]4 [DG]2 [DG]2 [EG]4 | [FA]4 [GB]2 [DG]2 [CE]4 | [CE]4 D2 [B,D]2 [DG]2 [DA]2 | %3
w: By~William~Batchelder~Bradbury,~1844 * * *|||
 [DB]2 [^CG]2 [DA]8 | [Fd]4 [Gd]2 [Fd]2 [Gd]4 | [Fc]4 [GB]2 [AB]2 [GB]4 | %6
w: |||
 B2 A2 [EG]2 [EG]2 [DG]2 [DG]2 | [DA]2 [DA]2 [DB]8 | z4 .A2 .F2 z4 | [DG]4 [DB]2 [DA]2 [DG]4- | %10
w: ||||
 [DG]4 z4 z4 |] %11
w: |
V:2
 x12 | x12 | x12 | x12 | x12 | x12 | F4 z4 z4 | x12 | [DG]4 E-[EG]C-[CE] D4 | x12 | x12 |] %11
V:3
 B,4 B,2 B,2 B,4 | D4 D2 G,2 G,4 | G,4 G,2 G,2 G,2 F,2 | G,2 G,2 F,8 | A,4 B,2[K:treble] C2 D4 | %5
 D4 D2 ^D2 E4 | ^D4 E2 C2[K:bass] B,2 G,2 | F,2 F,2 G,8 | G,4 G,2 G,2 G,4 | B,4 D2 C2 B,4- | %10
 B,4 z4 z4 |] %11
V:4
 G,4 G,2 G,2 E,4 | D,4 G,2 B,,2 C,4 | C,4 B,,2 G,,2 B,,2 D,2 | z2 E,2 D,8 | D,4 G,2 A,2 B,4 | %5
 A,4 G,2 F,2 E,4 | B,,4 C,2 C,2 G,,2 B,,2 | D,2 D,2 z4 z4 | B,,4 C,2 C,2 B,,4 | %9
 G,,4 D,2 D,2 G,,4- | G,,4 z4 z4 |] %11

